packages/core/src/svgs/tokens/mono/CWEB.svg

<svg width="24" height="24" viewBox="0 0 24 24" fill="none" xmlns="http://www.w3.org/2000/svg">
<path fill-rule="evenodd" clip-rule="evenodd" d="M12.0047 4.35213C12.1608 4.35213 12.3104 4.29015 12.4206 4.17983C12.531 4.06951 12.593 3.91989 12.593 3.76386C12.593 3.60785 12.531 3.45822 12.4206 3.3479C12.3104 3.23759 12.1608 3.1756 12.0047 3.1756C11.8486 3.1756 11.699 3.23759 11.5887 3.3479C11.4784 3.45822 11.4164 3.60785 11.4164 3.76386C11.4164 3.91989 11.4784 4.06951 11.5887 4.17983C11.699 4.29015 11.8486 4.35213 12.0047 4.35213ZM13.7695 3.76386C13.7695 3.86387 13.7636 3.96975 13.746 4.06389L18.3344 6.70518C18.5725 6.43793 18.8861 6.24939 19.234 6.16457C19.5817 6.07977 19.947 6.1027 20.2814 6.23033C20.6158 6.35797 20.9035 6.58426 21.1062 6.87921C21.3091 7.17414 21.4174 7.52377 21.4168 7.8817C21.4171 8.24681 21.304 8.60299 21.0933 8.90115C20.8826 9.19931 20.5846 9.42481 20.2404 9.54643V12.5879H19.0638V9.54643C18.7059 9.42042 18.3982 9.1824 18.1864 8.86768C17.9745 8.55297 17.8696 8.17835 17.8873 7.79934L13.1695 5.09335C13.0004 5.24074 12.8047 5.35454 12.593 5.42865V8.46997H11.4164V5.42865C11.1114 5.32081 10.842 5.13122 10.6374 4.88058C10.4329 4.62994 10.3011 4.32791 10.2567 4.00747C10.2122 3.68705 10.2567 3.36056 10.3852 3.06368C10.5136 2.7668 10.7213 2.51095 10.9854 2.32411C11.2495 2.13727 11.5598 2.02661 11.8825 2.00423C12.2054 1.98185 12.5279 2.0486 12.8154 2.19722C13.1026 2.34582 13.3437 2.57054 13.512 2.84683C13.6802 3.12313 13.7693 3.44036 13.7695 3.76386ZM12.0047 20.8235C12.1608 20.8235 12.3104 20.7615 12.4206 20.6511C12.531 20.5409 12.593 20.3912 12.593 20.2352C12.593 20.0792 12.531 19.9296 12.4206 19.8192C12.3104 19.709 12.1608 19.6469 12.0047 19.6469C11.8486 19.6469 11.699 19.709 11.5887 19.8192C11.4784 19.9296 11.4164 20.0792 11.4164 20.2352C11.4164 20.3912 11.4784 20.5409 11.5887 20.6511C11.699 20.7615 11.8486 20.8235 12.0047 20.8235ZM12.0047 22C12.243 22.0003 12.4789 21.9522 12.6981 21.8588C12.9175 21.7653 13.1156 21.6284 13.2804 21.4563C13.4453 21.2843 13.5737 21.0806 13.6577 20.8576C13.7417 20.6345 13.7798 20.3968 13.7695 20.1588L18.4873 17.4469C18.7445 17.6722 19.0614 17.8179 19.3998 17.8664C19.7383 17.915 20.0835 17.8642 20.3936 17.7202C20.7036 17.5762 20.9651 17.3453 21.1464 17.0556C21.3278 16.7658 21.4211 16.4295 21.4149 16.0877C21.4087 15.746 21.3035 15.4132 21.1118 15.1302C20.9201 14.8472 20.6504 14.6258 20.3354 14.493C20.0203 14.3605 19.6735 14.322 19.3371 14.3828C19.0006 14.4435 18.689 14.6005 18.4403 14.835L15.7107 13.2525L15.1224 14.2762L17.905 15.8762C17.8793 16.0559 17.8814 16.2383 17.9108 16.4174L13.3224 19.0586C13.037 18.7389 12.645 18.5339 12.2196 18.482C11.7943 18.43 11.3645 18.5347 11.0105 18.7763L8.0692 17.0763L7.48094 18.0999L10.3105 19.7352C10.2327 19.9986 10.2174 20.2765 10.2659 20.5468C10.3143 20.8171 10.4252 21.0724 10.5898 21.2923C10.7542 21.5122 10.9678 21.6907 11.2135 21.8136C11.4591 21.9364 11.73 22.0003 12.0047 22ZM4.94553 7.8817C4.94553 8.03772 4.88356 8.18735 4.77323 8.29767C4.66291 8.40798 4.51328 8.46997 4.35727 8.46997C4.20125 8.46997 4.05162 8.40798 3.9413 8.29767C3.83098 8.18735 3.76901 8.03772 3.76901 7.8817C3.76901 7.72568 3.83098 7.57606 3.9413 7.46574C4.05162 7.35542 4.20125 7.29344 4.35727 7.29344C4.51328 7.29344 4.66291 7.35542 4.77323 7.46574C4.88356 7.57606 4.94553 7.72568 4.94553 7.8817ZM6.12205 7.8817C6.12224 8.24681 6.0092 8.60299 5.79847 8.90115C5.58776 9.19931 5.28975 9.42481 4.94553 9.54643V14.4526C5.17521 14.5341 5.38552 14.6623 5.56321 14.8291L8.29863 13.2525L8.88689 14.2762L6.1044 15.8762C6.14993 16.2069 6.10072 16.5437 5.96247 16.8476C5.82422 17.1515 5.60261 17.41 5.32338 17.593C5.04414 17.7759 4.71872 17.876 4.38492 17.8815C4.05111 17.8868 3.72262 17.7975 3.43755 17.6237C3.15249 17.4499 2.92256 17.1989 2.77446 16.8998C2.62637 16.6006 2.56618 16.2655 2.60088 15.9335C2.63559 15.6013 2.76376 15.286 2.97054 15.0238C3.17729 14.7618 3.45418 14.5636 3.76901 14.4526V9.54643C3.52334 9.46119 3.29958 9.32269 3.11368 9.14083C2.92781 8.95899 2.7844 8.7383 2.69373 8.49458C2.60307 8.25086 2.5674 7.99011 2.58925 7.73098C2.6111 7.47186 2.68996 7.22077 2.82017 6.99567C2.95036 6.77058 3.1287 6.57704 3.34242 6.4289C3.55615 6.28075 3.79995 6.18168 4.05644 6.13874C4.31291 6.0958 4.57569 6.11008 4.826 6.18055C5.07631 6.25102 5.30797 6.37593 5.50438 6.54635L5.47496 6.48752L8.53392 4.72274L9.1222 5.74631L6.08087 7.49933C6.11029 7.61699 6.12205 7.75229 6.12205 7.8817ZM4.35727 16.7057C4.51328 16.7057 4.66291 16.6437 4.77323 16.5333C4.88356 16.4231 4.94553 16.2733 4.94553 16.1174C4.94553 15.9613 4.88356 15.8117 4.77323 15.7014C4.66291 15.5911 4.51328 15.5291 4.35727 15.5291C4.20125 15.5291 4.05162 15.5911 3.9413 15.7014C3.83098 15.8117 3.76901 15.9613 3.76901 16.1174C3.76901 16.2733 3.83098 16.4231 3.9413 16.5333C4.05162 16.6437 4.20125 16.7057 4.35727 16.7057ZM20.2404 7.8817C20.2404 8.03772 20.1783 8.18735 20.0681 8.29767C19.9577 8.40798 19.8081 8.46997 19.6521 8.46997C19.4961 8.46997 19.3464 8.40798 19.2362 8.29767C19.1258 8.18735 19.0638 8.03772 19.0638 7.8817C19.0638 7.72568 19.1258 7.57606 19.2362 7.46574C19.3464 7.35542 19.4961 7.29344 19.6521 7.29344C19.8081 7.29344 19.9577 7.35542 20.0681 7.46574C20.1783 7.57606 20.2404 7.72568 20.2404 7.8817ZM12.0047 12.5879C12.1608 12.5879 12.3104 12.5258 12.4206 12.4155C12.531 12.3052 12.593 12.1555 12.593 11.9996C12.593 11.8435 12.531 11.6939 12.4206 11.5835C12.3104 11.4733 12.1608 11.4113 12.0047 11.4113C11.8486 11.4113 11.699 11.4733 11.5887 11.5835C11.4784 11.6939 11.4164 11.8435 11.4164 11.9996C11.4164 12.1555 11.4784 12.3052 11.5887 12.4155C11.699 12.5258 11.8486 12.5879 12.0047 12.5879ZM12.593 13.6643C12.9761 13.5286 13.3006 13.2648 13.5117 12.9177C13.7228 12.5704 13.8076 12.1608 13.7518 11.7584L16.5343 10.1583L15.946 9.1347L13.2107 10.7112C12.8918 10.4099 12.4718 10.2388 12.0332 10.2311C11.5947 10.2235 11.1691 10.38 10.8399 10.67L8.18097 9.14059L7.59271 10.1583L10.2634 11.6995C10.1949 12.1102 10.2727 12.532 10.4836 12.8911C10.6943 13.2501 11.0245 13.5238 11.4164 13.6643V16.7057H12.593V13.6643ZM20.2404 16.1174C20.2404 16.2733 20.1783 16.4231 20.0681 16.5333C19.9577 16.6437 19.8081 16.7057 19.6521 16.7057C19.4961 16.7057 19.3464 16.6437 19.2362 16.5333C19.1258 16.4231 19.0638 16.2733 19.0638 16.1174C19.0638 15.9613 19.1258 15.8117 19.2362 15.7014C19.3464 15.5911 19.4961 15.5291 19.6521 15.5291C19.8081 15.5291 19.9577 15.5911 20.0681 15.7014C20.1783 15.8117 20.2404 15.9613 20.2404 16.1174Z" fill="white"/>
</svg>

<svg xmlns="http://www.w3.org/2000/svg" width="24" height="24" fill="none" viewBox="0 0 24 24">
    <path fill="#fff" fill-rule="evenodd" d="M12.005 4.352a.588.588 0 1 0 0-1.175.588.588 0 0 0 0 1.175m1.765-.588c0 .1-.006.206-.024.3l4.588 2.641a1.764 1.764 0 0 1 3.083 1.177 1.76 1.76 0 0 1-1.177 1.664v3.042h-1.176V9.546A1.76 1.76 0 0 1 17.887 7.8L13.17 5.093a1.8 1.8 0 0 1-.576.336V8.47h-1.177V5.429a1.765 1.765 0 1 1 2.354-1.665m-1.765 17.06a.588.588 0 1 0 0-1.176.588.588 0 0 0 0 1.175m0 1.176a1.763 1.763 0 0 0 1.765-1.841l4.717-2.712a1.765 1.765 0 1 0-.047-2.612l-2.73-1.583-.588 1.024 2.783 1.6q-.039.271.006.541l-4.589 2.642a1.765 1.765 0 0 0-2.311-.283l-2.942-1.7-.588 1.024 2.83 1.635A1.765 1.765 0 0 0 12.005 22M4.945 7.882a.588.588 0 1 1-1.176 0 .588.588 0 0 1 1.177 0m1.177 0a1.765 1.765 0 0 1-1.176 1.664v4.907c.23.081.44.21.617.376L8.3 13.252l.588 1.024-2.783 1.6a1.765 1.765 0 1 1-2.335-1.423V9.546a1.764 1.764 0 1 1 1.735-3l-.029-.058 3.059-1.765.588 1.023L6.081 7.5c.03.118.041.253.041.383m-1.765 8.824a.588.588 0 1 0 0-1.176.588.588 0 0 0 0 1.176M20.24 7.882a.589.589 0 1 1-1.177 0 .589.589 0 0 1 1.177 0m-8.235 4.706a.588.588 0 1 0 0-1.176.588.588 0 0 0 0 1.176m.588 1.076a1.765 1.765 0 0 0 1.159-1.906l2.782-1.6-.588-1.023-2.735 1.576a1.76 1.76 0 0 0-2.371-.041L8.18 9.14l-.588 1.018 2.67 1.542a1.776 1.776 0 0 0 1.153 1.964v3.042h1.177zm7.647 2.453a.589.589 0 1 1-1.177 0 .589.589 0 0 1 1.177 0" clip-rule="evenodd"/>
</svg>
